src/images/order/title-icon.svg

<svg fill="none" height="42" viewBox="0 0 42 42" width="42" xmlns="http://www.w3.org/2000/svg" xmlns:xlink="http://www.w3.org/1999/xlink"><clipPath id="a"><path d="m0 21c0-11.59798 9.40202-21 21-21 11.598 0 21 9.40202 21 21 0 11.598-9.402 21-21 21h-20.439998c-.309279 0-.560002-.2507-.560002-.56z"/></clipPath><g clip-path="url(#a)"><path d="m0 21c0-11.59798 9.40202-21 21-21 11.598 0 21 9.40202 21 21 0 11.598-9.402 21-21 21h-20.439998c-.309279 0-.560002-.2507-.560002-.56z" fill="#ffd874"/><g fill="#080a08"><path d="m6.72374 29.8665c.00245-.2373.00487-.4589.00729-.6803.03952-.0119.05957-.024.0787-.0228.35323.0229.70608.0525 1.0596.0691.16554.0077.33227-.0113.49854-.0145.34053-.0067.32291.0484.4844-.2638.22243-.43.46252-.8515.68505-1.2815.09993-.1931.16667-.4021.26433-.5964.17459-.3475.35915-.6904.54345-1.0332.1578-.2938.3211-.5849.4821-.8771.0176-.0319.0352-.064.0551-.0946.0842-.1287.2009-.1884.3631-.1874.5855.0038 1.1711.0001 1.7566-.001 1.9016-.0038 3.8032-.0046 5.7047-.0131.6332-.0028 1.2662-.024 1.8993-.0394.2133-.0052.4265-.016.6394-.0287.1529-.0092.1648-.0068.2365.1288.2074.3926.4143.7854.621 1.1783.1798.342.3524.6877.5402 1.0254.2816.5065.5665 1.0115.8652 1.5085.1042.1734.2554.32.3813.4816.0443.0569.1016.049.1595.0476.5043-.0119 1.0085-.0248 1.5128-.0366.0855-.002.1711-.0003.2713-.0003.0105.0386.0313.0814.0325.1247.0135.4822.0263.9644.0334 1.4467.0018.1258-.0185.1449-.1467.1591-.1919.0213-.3852.0299-.5775.0484-.1792.0172-.1776.0207-.1757.1868.0102.8924.019 1.7849.0285 2.6773.0033.3106.007.6213.0101.9319.0008.0723.0001.1445.0001.2225-.081.0476-.1675.0382-.2511.0377-.7466-.0046-1.4932-.0117-2.2398-.0152-1.4772-.0071-2.9544-.0129-4.4316-.0181-.6445-.0023-1.2891-.0017-1.9337-.0024-.746-.0008-1.492-.0011-2.238-.0029-.1342-.0004-.2685-.0107-.4027-.0098-.7728.0055-1.5455.0166-2.3183.0189-1.1818.0035-2.3636.0013-3.5454.0012-.04212 0-.08425-.004-.13682-.0067-.006-.0442-.01552-.0834-.01603-.1227-.00942-.7368-.02197-1.4736-.02438-2.2104-.00103-.3156.01809-.6314.03086-.947.00566-.1397.01527-.2794.02885-.4185.00891-.0912-.03692-.137-.12061-.153-.07863-.015-.15866-.0237-.23833-.0331-.1538-.0183-.30779-.0351-.47713-.0543 0-.3794 0-.7467.00003-1.1297zm4.91916-.4611c.1879.0019.3758.0043.5638.0056 1.0514.0071 2.1029.0146 3.1544.0206.4188.0024.8376.0007 1.2564.0015.7027.0013 1.4054.0047 2.1081.0041.7179-.0006 1.4358-.0039 2.1537-.0093.0828-.0007.1653-.0227.2654-.0374-.0492-.1131-.0846-.2107-.1325-.3022-.1987-.3792-.4001-.757-.6026-1.1344-.1309-.2438-.2624-.4874-.3994-.728-.0783-.1375-.1808-.2172-.3696-.2163-1.6966.0085-3.3932.0053-5.0898.0056-.171 0-.3419-.0014-.5128.0007-.4294.0054-.8589.0172-1.2883.0166-.1775-.0003-.2886.0606-.3625.222-.1562.341-.3165.6812-.4966 1.0108-.1576.2883-.3456.5611-.5175.8422-.0449.0734-.0798.1525-.1175.2256.1181.0961.2408.0641.3873.0723z"/><path d="m4.43234 30.6763v4.3237c-1.50678 0-3.00195 0-4.5181879 0 0-.0587-.0000491-.1191.0000062-.1794.00134-1.4584.0035859-2.9168.0038577-4.3753.0005931-3.1769.0001854-6.3538.0001621-9.5307 0-.0519.0114879-.1071-.002789-.1551-.0374351-.1258.0355062-.1824.1346769-.2291.313604-.1477.628338-.2932.940274-.4442.78223-.3785 1.56201-.7618 2.34517-1.1384.32609-.1569.65815-.3021.98788-.4519.02796-.0127.05876-.0196.10895-.0359z"/><path d="m28.6172 14.0257c.107-.0507.1901-.0513.2983.0003l-.0603-6.66234c-.0654-.02966-.1187-.02623-.1816.00277-.3435.1585-.6877.31555-1.0331.47032-1.1684.52368-2.3219 1.07702-3.479 1.62346-2.6999 1.27499-5.4138 2.52239-8.1216 3.78189-3.2058 1.4911-6.41057 2.9842-9.61839 4.4712-.1461.0677-.19365.1497-.19011.2985.01704.7157.02565 1.4317.03735 2.1475l.00006.0038c.00021.0143.00043.0288.00293.0427.00167.0094.00831.0178.02014.0416h.14908c2.93306 0 5.86614-.0003 8.79914.0015.1053 0 .1983-.021.2925-.0655 1.2102-.5716 2.4214-1.1411 3.6326-1.7106 1.689-.794 3.3783-1.5874 5.0672-2.3816l.4157-.1954c1.3236-.6223 2.6472-1.2446 3.9691-1.8701z"/><path d="m28.7257 5.45342c.0951-.04329.1721-.04729.2701-.00172l.0042-5.4162293c-.095-.04523075-.1716-.0486459-.269-.0019052-.7932.3804285-1.5891.7556415-2.3844 1.1319545-1.9135.9054-3.8272 1.8103-5.7406 2.71583-2.3135 1.09487-4.6267 2.19042-6.9402 3.28524-2.1785 1.03094-4.35755 2.06091-6.53599 3.09211-1.91336.9057-3.82587 1.8131-5.73935 2.7185-2.4243 1.1472-4.84922 2.2932-7.2736 3.4402-.03595.0171-.06828.0412-.11686.0709.17107.0837.32386.1589.47704.2333 1.48154.7202 2.96325 1.4401 4.44441 2.161.07395.036.136167.0577.224175.0179.476019-.2157.959109-.417 1.434313-.6343 1.294992-.5922 2.585552-1.1935 3.881242-1.7843.76646-.3495 1.5409-.6827 2.3088-1.0292.59795-.2699 1.18963-.5528 1.78727-.8234.55369-.2506 1.11237-.491 1.66715-.7395.1501-.0672.291-.1534.4411-.2206.3894-.1744.7843-.3373 1.172-.515 1.3866-.6355 2.7687-1.2804 4.157-1.9124 4.2428-1.93129 8.4879-3.85797 12.7312-5.78838z"/></g></g></svg>

<svg width="42" height="42" viewBox="0 0 42 42" fill="none" xmlns="http://www.w3.org/2000/svg">
<g id="Frame 20">
<g clip-path="url(#clip0_24_1386)">
<path d="M0 21C0 9.40202 9.40202 0 21 0C32.598 0 42 9.40202 42 21C42 32.598 32.598 42 21 42H0.560002C0.250723 42 0 41.7493 0 41.44V21Z" fill="#FFD874"/>
<g id="Vector">
<path d="M6.72374 29.8665C6.72619 29.6292 6.72861 29.4076 6.73103 29.1862C6.77055 29.1743 6.7906 29.1622 6.80973 29.1634C7.16296 29.1863 7.51581 29.2159 7.86933 29.2325C8.03487 29.2402 8.2016 29.2212 8.36787 29.218C8.7084 29.2113 8.69078 29.2664 8.85227 28.9542C9.0747 28.5242 9.31479 28.1027 9.53732 27.6727C9.63725 27.4796 9.70399 27.2706 9.80165 27.0763C9.97624 26.7288 10.1608 26.3859 10.3451 26.0431C10.5029 25.7493 10.6662 25.4582 10.8272 25.166C10.8448 25.1341 10.8624 25.102 10.8823 25.0714C10.9665 24.9427 11.0832 24.883 11.2454 24.884C11.8309 24.8878 12.4165 24.8841 13.002 24.883C14.9036 24.8792 16.8052 24.8784 18.7067 24.8699C19.3399 24.8671 19.9729 24.8459 20.606 24.8305C20.8193 24.8253 21.0325 24.8145 21.2454 24.8018C21.3983 24.7926 21.4102 24.795 21.4819 24.9306C21.6893 25.3232 21.8962 25.716 22.1029 26.1089C22.2827 26.4509 22.4553 26.7966 22.6431 27.1343C22.9247 27.6408 23.2096 28.1458 23.5083 28.6428C23.6125 28.8162 23.7637 28.9628 23.8896 29.1244C23.9339 29.1813 23.9912 29.1734 24.0491 29.172C24.5534 29.1601 25.0576 29.1472 25.5619 29.1354C25.6474 29.1334 25.733 29.1351 25.8332 29.1351C25.8437 29.1737 25.8645 29.2165 25.8657 29.2598C25.8792 29.742 25.892 30.2242 25.8991 30.7065C25.9009 30.8323 25.8806 30.8514 25.7524 30.8656C25.5605 30.8869 25.3672 30.8955 25.1749 30.914C24.9957 30.9312 24.9973 30.9347 24.9992 31.1008C25.0094 31.9932 25.0182 32.8857 25.0277 33.7781C25.031 34.0887 25.0347 34.3994 25.0378 34.71C25.0386 34.7823 25.0379 34.8545 25.0379 34.9325C24.9569 34.9801 24.8704 34.9707 24.7868 34.9702C24.0402 34.9656 23.2936 34.9585 22.547 34.955C21.0698 34.9479 19.5926 34.9421 18.1154 34.9369C17.4709 34.9346 16.8263 34.9352 16.1817 34.9345C15.4357 34.9337 14.6897 34.9334 13.9437 34.9316C13.8095 34.9312 13.6752 34.9209 13.541 34.9218C12.7682 34.9273 11.9955 34.9384 11.2227 34.9407C10.0409 34.9442 8.8591 34.942 7.6773 34.9419C7.63518 34.9419 7.59305 34.9379 7.54048 34.9352C7.53448 34.891 7.52496 34.8518 7.52445 34.8125C7.51503 34.0757 7.50248 33.3389 7.50007 32.6021C7.49904 32.2865 7.51816 31.9707 7.53093 31.6551C7.53659 31.5154 7.5462 31.3757 7.55978 31.2366C7.56869 31.1454 7.52286 31.0996 7.43917 31.0836C7.36054 31.0686 7.28051 31.0599 7.20084 31.0505C7.04704 31.0322 6.89305 31.0154 6.72371 30.9962C6.72371 30.6168 6.72371 30.2495 6.72374 29.8665ZM11.6429 29.4054C11.8308 29.4073 12.0187 29.4097 12.2067 29.411C13.2581 29.4181 14.3096 29.4256 15.3611 29.4316C15.7799 29.434 16.1987 29.4323 16.6175 29.4331C17.3202 29.4344 18.0229 29.4378 18.7256 29.4372C19.4435 29.4366 20.1614 29.4333 20.8793 29.4279C20.9621 29.4272 21.0446 29.4052 21.1447 29.3905C21.0955 29.2774 21.0601 29.1798 21.0122 29.0883C20.8135 28.7091 20.6121 28.3313 20.4096 27.9539C20.2787 27.7101 20.1472 27.4665 20.0102 27.2259C19.9319 27.0884 19.8294 27.0087 19.6406 27.0096C17.944 27.0181 16.2474 27.0149 14.5508 27.0152C14.3798 27.0152 14.2089 27.0138 14.038 27.0159C13.6086 27.0213 13.1791 27.0331 12.7497 27.0325C12.5722 27.0322 12.4611 27.0931 12.3872 27.2545C12.231 27.5955 12.0707 27.9357 11.8906 28.2653C11.733 28.5536 11.545 28.8264 11.3731 29.1075C11.3282 29.1809 11.2933 29.26 11.2556 29.3331C11.3737 29.4292 11.4964 29.3972 11.6429 29.4054Z" fill="#080A08"/>
<path d="M4.43234 30.6763C4.43234 32.1238 4.43234 33.5557 4.43234 35C2.92556 35 1.43039 35 -0.0858479 35C-0.0858479 34.9413 -0.085897 34.8809 -0.0858417 34.8206C-0.0845017 33.3622 -0.0822558 31.9038 -0.081984 30.4453C-0.0813909 27.2684 -0.0817986 24.0915 -0.0818219 20.9146C-0.0818219 20.8627 -0.070334 20.8075 -0.0846109 20.7595C-0.122046 20.6337 -0.0491047 20.5771 0.050066 20.5304C0.36367 20.3827 0.678404 20.2372 0.99034 20.0862C1.77257 19.7077 2.55235 19.3244 3.33551 18.9478C3.6616 18.7909 3.99366 18.6457 4.32339 18.4959C4.35135 18.4832 4.38215 18.4763 4.43234 18.46C4.43234 22.5373 4.43234 26.599 4.43234 30.6763Z" fill="#080A08"/>
<path d="M28.6172 14.0257C28.7242 13.975 28.8073 13.9744 28.9155 14.026L28.8552 7.36366C28.7898 7.334 28.7365 7.33743 28.6736 7.36643C28.3301 7.52493 27.9859 7.68198 27.6405 7.83675C26.4721 8.36043 25.3186 8.91377 24.1615 9.46021C21.4616 10.7352 18.7477 11.9826 16.0399 13.2421C12.8341 14.7332 9.62933 16.2263 6.42151 17.7133C6.27541 17.781 6.22786 17.863 6.2314 18.0118C6.24844 18.7275 6.25705 19.4435 6.26875 20.1593L6.26881 20.1631C6.26902 20.1774 6.26924 20.1919 6.27174 20.2058C6.27341 20.2152 6.28005 20.2236 6.29188 20.2474H6.44096C9.37402 20.2474 12.3071 20.2471 15.2401 20.2489C15.3454 20.2489 15.4384 20.2279 15.5326 20.1834C16.7428 19.6118 17.954 19.0423 19.1652 18.4728C20.8542 17.6788 22.5435 16.8854 24.2324 16.0912L24.6481 15.8958C25.9717 15.2735 27.2953 14.6512 28.6172 14.0257Z" fill="#080A08"/>
<path d="M28.7257 5.45342C28.8208 5.41013 28.8978 5.40613 28.9958 5.4517L29 0.0354707C28.905 -0.00976005 28.8284 -0.0131752 28.731 0.0335655C27.9378 0.413994 27.1419 0.789207 26.3466 1.16552C24.4331 2.07092 22.5194 2.97582 20.606 3.88135C18.2925 4.97622 15.9793 6.07177 13.6658 7.16659C11.4873 8.19753 9.30825 9.2275 7.12981 10.2587C5.21645 11.1644 3.30394 12.0718 1.39046 12.9772C-1.03384 14.1244 -3.45876 15.2704 -5.88314 16.4174C-5.91909 16.4345 -5.95142 16.4586 -6 16.4883C-5.82893 16.572 -5.67614 16.6472 -5.52296 16.7216C-4.04142 17.4418 -2.55971 18.1617 -1.07855 18.8826C-1.0046 18.9186 -0.942383 18.9403 -0.854375 18.9005C-0.378356 18.6848 0.104734 18.4835 0.579938 18.2662C1.87493 17.674 3.16549 17.0727 4.46118 16.4819C5.22764 16.1324 6.00208 15.7992 6.76998 15.4527C7.36793 15.1828 7.95961 14.8999 8.55725 14.6293C9.11094 14.3787 9.66962 14.1383 10.2244 13.8898C10.3745 13.8226 10.5154 13.7364 10.6655 13.6692C11.0549 13.4948 11.4498 13.3319 11.8375 13.1542C13.2241 12.5187 14.6062 11.8738 15.9945 11.2418C20.2373 9.31051 24.4824 7.38383 28.7257 5.45342Z" fill="#080A08"/>
</g>
</g>
</g>
<defs>
<clipPath id="clip0_24_1386">
<path d="M0 21C0 9.40202 9.40202 0 21 0C32.598 0 42 9.40202 42 21C42 32.598 32.598 42 21 42H0.560002C0.250723 42 0 41.7493 0 41.44V21Z" fill="white"/>
</clipPath>
</defs>
</svg>
